X: 26832
T: Milltown Lasses, The
R: reel
M: 4/4
K: Edorian
FE~E2 FD~D2|FE~E2 cdAG|FE~E2 FDFA|(3Bcd ef dcBA|
FE~E2 FDA,D|FE~E2 cdAG|FE~E2 FDFA|(3Bcd ef dAFA||
Bee^d efe=d|B^def gefd|Bee^d efe=d|(3Bcd ec dAFA|
Bee^d efe=d|B^def gdef|gabg fagf|gefd (3Bcd AG||

